X: 15
T:Swallow's Tail
M:4/4
L:1/8
Q:180
K:ADor
gf|"Am"eA (3cBA eA (3cBA|cdef gedB|"G"G2 BG dGBG|Bdef- g2 fg|!
"Am"eA (3cBA eA (3cBA|cdef- g2 fg|"G"af (3gfe dBGB|"Am"Ac"(G)"BG "(Am)"A
2::!
"Am"cd|eaag abag|edef gedB|"G"G2cG dGcG|Bdef g2 fg|!
"Am"eaag abag|edef g2 fg|"G"afge dBGB|"Am"Ac"(G)"BG "(Am)"A2:|
